public/images/logo-woocommerce.svg

<svg width="113" height="23" viewBox="0 0 113 23" fill="none" xmlns="http://www.w3.org/2000/svg">
<path fill-rule="evenodd" clip-rule="evenodd" d="M34.7091 0H3.55239C1.58064 0 -0.0155347 1.61182 0.000114089 3.56792V15.461C0.000114089 17.4327 1.59629 19.0289 3.56804 19.0289H18.3248L25.0695 22.7846L23.5359 19.0289H34.7091C36.6809 19.0289 38.277 17.4327 38.277 15.461V3.56792C38.277 1.59617 36.6809 0 34.7091 0ZM2.89521 2.75418C2.45704 2.78548 2.12841 2.94197 1.90933 3.23929C1.69025 3.52097 1.61201 3.88089 1.65895 4.28776C2.58223 10.1561 3.44291 14.1152 4.241 16.1652C4.55398 16.9163 4.9139 17.2763 5.33642 17.245C5.99366 17.198 6.7761 16.2904 7.69938 14.5221C8.18449 13.5205 8.93564 12.0183 9.95281 10.0152C10.7978 12.9728 11.9558 15.195 13.4112 16.6816C13.8181 17.1041 14.2406 17.2919 14.6474 17.2606C15.0074 17.2293 15.289 17.0415 15.4768 16.6972C15.6333 16.3999 15.6959 16.0556 15.6646 15.6644C15.5707 14.2404 15.7116 12.253 16.1028 9.70224C16.5096 7.07325 17.0104 5.17974 17.6207 4.05303C17.7459 3.8183 17.7928 3.58356 17.7772 3.30189C17.7459 2.94196 17.5894 2.64464 17.2921 2.40991C16.9948 2.17518 16.6661 2.06564 16.3062 2.09693C15.8524 2.12823 15.5081 2.34731 15.2734 2.78548C14.3032 4.55379 13.6146 7.41752 13.2078 11.3923C12.6131 9.89003 12.1123 8.12171 11.7211 6.04042C11.549 5.11715 11.1265 4.67898 10.4379 4.72593C9.96845 4.75722 9.57724 5.0702 9.26426 5.66485L5.83718 12.1904C5.27382 9.92132 4.74176 7.15149 4.25665 3.88089C4.14711 3.06716 3.69329 2.69158 2.89521 2.75418ZM33.0504 3.88094C34.1615 4.11568 34.9909 4.71033 35.5542 5.6962C36.055 6.54124 36.3053 7.55841 36.3053 8.77901C36.3053 10.3908 35.8985 11.8618 35.0847 13.2076C34.1458 14.7725 32.9252 15.5549 31.4073 15.5549C31.1413 15.5549 30.8596 15.5236 30.5622 15.461C29.4512 15.2263 28.6218 14.6317 28.0584 13.6458C27.5577 12.7851 27.3073 11.7523 27.3073 10.5473C27.3073 8.9355 27.7142 7.46451 28.5279 6.13437C29.4825 4.56949 30.7031 3.78705 32.2054 3.78705C32.4714 3.78705 32.7531 3.81835 33.0504 3.88094ZM32.3932 12.3469C32.9722 11.8305 33.3634 11.0637 33.5825 10.0309C33.6451 9.67099 33.692 9.27977 33.692 8.8729C33.692 8.41909 33.5981 7.93398 33.4103 7.44886C33.1756 6.83856 32.8626 6.50994 32.487 6.43169C31.9237 6.32215 31.376 6.63513 30.8596 7.40192C30.4371 7.99657 30.171 8.62252 30.0302 9.26412C29.9519 9.62405 29.9206 10.0153 29.9206 10.4065C29.9206 10.8603 30.0145 11.3454 30.2023 11.8305C30.4371 12.4408 30.75 12.7694 31.1256 12.8477C31.5168 12.9259 31.9393 12.7538 32.3932 12.3469ZM25.7424 5.6962C25.179 4.71033 24.334 4.11568 23.2386 3.88094C22.9412 3.81835 22.6596 3.78705 22.3935 3.78705C20.8913 3.78705 19.6707 4.56949 18.7161 6.13437C17.9023 7.46451 17.4955 8.9355 17.4955 10.5473C17.4955 11.7523 17.7459 12.7851 18.2466 13.6458C18.81 14.6317 19.6394 15.2263 20.7504 15.461C21.0477 15.5236 21.3294 15.5549 21.5955 15.5549C23.1134 15.5549 24.334 14.7725 25.2729 13.2076C26.0867 11.8618 26.4935 10.3908 26.4935 8.77901C26.4935 7.55841 26.2431 6.54124 25.7424 5.6962ZM23.7706 10.0309C23.5516 11.0637 23.1603 11.8305 22.5813 12.3469C22.1275 12.7538 21.705 12.9259 21.3138 12.8477C20.9382 12.7694 20.6252 12.4408 20.3905 11.8305C20.2027 11.3454 20.1088 10.8603 20.1088 10.4065C20.1088 10.0153 20.1401 9.62405 20.2184 9.26412C20.3592 8.62252 20.6252 7.99657 21.0477 7.40192C21.5642 6.63513 22.1119 6.32215 22.6752 6.43169C23.0508 6.50994 23.3638 6.83856 23.5985 7.44886C23.7863 7.93398 23.8802 8.41909 23.8802 8.8729C23.8802 9.27977 23.8489 9.67099 23.7706 10.0309Z" fill="#7f54b3"/>
<path d="M42.2362 5.55528C41.1877 6.5881 40.6713 7.90259 40.6713 9.49877C40.6713 11.2045 41.1877 12.5972 42.2206 13.6457C43.2534 14.6942 44.5992 15.2262 46.2736 15.2262C46.7587 15.2262 47.3064 15.148 47.9011 14.9758V12.4407C47.3534 12.5972 46.8839 12.6755 46.477 12.6755C45.6476 12.6755 44.9904 12.3938 44.4896 11.8461C43.9889 11.2827 43.7385 10.5316 43.7385 9.57701C43.7385 8.68503 43.9889 7.94954 44.474 7.38618C44.9747 6.80718 45.585 6.5255 46.3362 6.5255C46.8213 6.5255 47.3377 6.60374 47.9011 6.76023V4.22513C47.3847 4.08429 46.8057 4.02169 46.1953 4.02169C44.5992 4.00604 43.2847 4.52246 42.2362 5.55528ZM53.0965 4.00604C51.6568 4.00604 50.5301 4.49116 49.7163 5.44573C48.9026 6.40031 48.5114 7.74611 48.5114 9.46747C48.5114 11.3297 48.9182 12.7537 49.7163 13.7396C50.5144 14.7255 51.6881 15.2262 53.2217 15.2262C54.7083 15.2262 55.8506 14.7255 56.6487 13.7396C57.4468 12.7537 57.8537 11.361 57.8537 9.57701C57.8537 7.79305 57.4468 6.41596 56.6331 5.44573C55.8037 4.49116 54.63 4.00604 53.0965 4.00604ZM54.3327 12.1434C54.051 12.5816 53.6285 12.8007 53.0965 12.8007C52.5957 12.8007 52.2201 12.5816 51.9541 12.1434C51.6881 11.7052 51.5629 10.8289 51.5629 9.49877C51.5629 7.44878 52.0793 6.4316 53.1278 6.4316C54.2232 6.4316 54.7865 7.46443 54.7865 9.54572C54.7709 10.8289 54.6144 11.7052 54.3327 12.1434ZM65.5842 4.30337L65.0208 6.69764C64.88 7.30794 64.7392 7.93389 64.614 8.57549L64.301 10.2343C64.0037 8.57549 63.5968 6.60374 63.0804 4.30337H59.4499L58.0884 14.9602H60.8113L61.5468 7.62091L63.409 14.9602H65.3495L67.1334 7.63656L67.9002 14.9602H70.7483L69.3086 4.30337H65.5842ZM78.6196 4.30337L78.0563 6.69764C77.9154 7.30794 77.7746 7.93389 77.6494 8.57549L77.3364 10.2343C77.0391 8.57549 76.6322 6.60374 76.1158 4.30337H72.4853L71.1239 14.9602H73.8467L74.5822 7.62091L76.4444 14.9602H78.3849L80.1532 7.63656L80.92 14.9602H83.7681L82.3284 4.30337H78.6196ZM87.4768 10.7507H90.0276V8.54419H87.4768V6.58809H90.4188V4.31902H84.5975V14.9758H90.4345V12.7068H87.4768V10.7507ZM98.5405 9.0606C98.8379 8.57549 98.9943 8.07473 98.9943 7.55832C98.9943 6.5568 98.6031 5.75871 97.8207 5.1797C97.0382 4.6007 95.9585 4.30337 94.6127 4.30337H91.2638V14.9602H94.1432V10.1091H94.1902L96.5218 14.9602H99.5577L97.2573 10.156C97.805 9.90564 98.2432 9.54571 98.5405 9.0606ZM94.1276 8.88846V6.35336C94.8161 6.36901 95.3012 6.47855 95.5986 6.69764C95.8959 6.91672 96.0367 7.26099 96.0367 7.76175C96.0367 8.49724 95.3951 8.87282 94.1276 8.88846ZM100.684 5.55528C99.6359 6.5881 99.1195 7.90259 99.1195 9.49877C99.1195 11.2045 99.6359 12.5972 100.669 13.6457C101.702 14.6942 103.047 15.2262 104.722 15.2262C105.207 15.2262 105.755 15.148 106.349 14.9758V12.4407C105.802 12.5972 105.332 12.6755 104.925 12.6755C104.096 12.6755 103.439 12.3938 102.938 11.8461C102.437 11.2827 102.187 10.5316 102.187 9.57701C102.187 8.68503 102.437 7.94954 102.922 7.38618C103.423 6.80718 104.033 6.5255 104.784 6.5255C105.269 6.5255 105.786 6.60374 106.349 6.76023V4.22513C105.833 4.08429 105.254 4.02169 104.644 4.02169C103.063 4.00604 101.733 4.52246 100.684 5.55528ZM110.027 12.6755V10.735H112.577V8.52854H110.027V6.57245H112.984V4.30337H107.163V14.9602H113V12.6911H110.027V12.6755Z" fill="black"/>
</svg>

<svg xmlns="http://www.w3.org/2000/svg" width="113" height="23" fill="none" viewBox="0 0 113 23"><path fill="#7f54b3" fill-rule="evenodd" d="M34.71 0H3.551A3.553 3.553 0 0 0 0 3.568V15.46a3.566 3.566 0 0 0 3.568 3.568h14.757l6.745 3.756-1.534-3.756h11.173a3.566 3.566 0 0 0 3.568-3.568V3.568A3.566 3.566 0 0 0 34.709 0ZM2.894 2.754c-.438.031-.767.188-.986.485-.219.282-.297.642-.25 1.049.923 5.868 1.784 9.827 2.582 11.877.313.751.673 1.111 1.095 1.08.658-.047 1.44-.955 2.363-2.723a293.572 293.572 0 0 1 2.254-4.507c.845 2.958 2.003 5.18 3.458 6.667.407.422.83.61 1.236.579.36-.032.642-.22.83-.564.156-.297.219-.641.188-1.033-.094-1.424.047-3.411.438-5.962.407-2.629.907-4.522 1.518-5.649.125-.235.172-.47.156-.751a1.226 1.226 0 0 0-.485-.892 1.36 1.36 0 0 0-.986-.313c-.454.031-.798.25-1.033.688-.97 1.769-1.658 4.633-2.065 8.607-.595-1.502-1.096-3.27-1.487-5.352-.172-.923-.595-1.361-1.283-1.314-.47.031-.86.344-1.174.939L5.837 12.19c-.563-2.269-1.095-5.039-1.58-8.31-.11-.813-.564-1.188-1.362-1.126ZM33.05 3.881c1.111.235 1.94.83 2.504 1.815.501.845.751 1.862.751 3.083 0 1.612-.407 3.083-1.22 4.429-.94 1.565-2.16 2.347-3.678 2.347-.266 0-.547-.031-.845-.094-1.11-.235-1.94-.83-2.504-1.815-.5-.86-.75-1.894-.75-3.099 0-1.612.406-3.082 1.22-4.413.955-1.565 2.175-2.347 3.677-2.347.266 0 .548.031.845.094Zm-.657 8.466c.58-.516.97-1.283 1.19-2.316.062-.36.109-.751.109-1.158 0-.454-.094-.939-.282-1.424-.234-.61-.547-.94-.923-1.017-.563-.11-1.111.203-1.627.97a5.06 5.06 0 0 0-.83 1.862c-.078.36-.11.751-.11 1.143 0 .453.095.938.282 1.424.235.61.548.938.924 1.017.39.078.813-.094 1.267-.501Zm-6.65-6.65c-.564-.987-1.409-1.581-2.504-1.816a4.109 4.109 0 0 0-.846-.094c-1.502 0-2.722.782-3.677 2.347-.814 1.33-1.22 2.801-1.22 4.413 0 1.205.25 2.238.75 3.099.564.986 1.393 1.58 2.504 1.815.298.063.58.094.846.094 1.517 0 2.738-.782 3.677-2.347.814-1.346 1.22-2.817 1.22-4.429 0-1.22-.25-2.238-.75-3.083ZM23.77 10.03c-.22 1.033-.61 1.8-1.19 2.316-.453.407-.876.579-1.267.5-.376-.078-.689-.406-.924-1.016a3.971 3.971 0 0 1-.281-1.425c0-.39.031-.782.11-1.142a5.06 5.06 0 0 1 .829-1.862c.516-.767 1.064-1.08 1.627-.97.376.078.689.407.924 1.017.187.485.281.97.281 1.424 0 .407-.031.798-.11 1.158Z" clip-rule="evenodd"/><path fill="#000" d="M42.236 5.555c-1.048 1.033-1.565 2.348-1.565 3.944 0 1.705.517 3.098 1.55 4.147 1.032 1.048 2.378 1.58 4.053 1.58.485 0 1.032-.078 1.627-.25V12.44c-.548.156-1.017.234-1.424.234-.83 0-1.487-.281-1.987-.829-.501-.563-.752-1.314-.752-2.269 0-.892.25-1.627.736-2.19.5-.58 1.111-.861 1.862-.861.485 0 1.002.078 1.565.234V4.225a6.537 6.537 0 0 0-1.706-.203c-1.596-.016-2.91.5-3.959 1.533Zm10.86-1.549c-1.44 0-2.566.485-3.38 1.44-.813.954-1.205 2.3-1.205 4.021 0 1.863.407 3.287 1.205 4.273.798.986 1.972 1.486 3.506 1.486 1.486 0 2.629-.5 3.427-1.486s1.205-2.379 1.205-4.163c0-1.784-.407-3.161-1.22-4.131-.83-.955-2.004-1.44-3.538-1.44Zm1.237 8.137c-.282.439-.704.658-1.236.658-.501 0-.877-.22-1.143-.658-.266-.438-.391-1.314-.391-2.644 0-2.05.516-3.067 1.565-3.067 1.095 0 1.658 1.032 1.658 3.114-.015 1.283-.172 2.16-.453 2.597Zm11.251-7.84-.563 2.395c-.141.61-.282 1.236-.407 1.877l-.313 1.66a142.34 142.34 0 0 0-1.22-5.932H59.45L58.088 14.96h2.723l.736-7.34 1.862 7.34h1.94l1.784-7.323.767 7.323h2.848l-1.44-10.657h-3.724Zm13.036 0-.564 2.395c-.14.61-.281 1.236-.407 1.877l-.313 1.66a142.34 142.34 0 0 0-1.22-5.932h-3.63L71.123 14.96h2.723l.735-7.34 1.862 7.34h1.94l1.77-7.323.766 7.323h2.848l-1.44-10.657H78.62Zm8.857 6.448h2.55V8.544h-2.55V6.588h2.942V4.32h-5.822v10.657h5.838v-2.27h-2.958v-1.955ZM98.54 9.06c.298-.486.454-.986.454-1.503 0-1.001-.39-1.8-1.173-2.378-.783-.58-1.862-.877-3.208-.877h-3.35V14.96h2.88v-4.85h.047l2.332 4.85h3.036l-2.3-4.804c.547-.25.985-.61 1.282-1.095Zm-4.412-.173V6.353c.688.016 1.173.126 1.47.345.298.219.439.563.439 1.064 0 .735-.642 1.11-1.91 1.126Zm6.556-3.333C99.636 6.588 99.12 7.903 99.12 9.5c0 1.705.516 3.098 1.549 4.147 1.033 1.048 2.378 1.58 4.053 1.58.485 0 1.033-.078 1.627-.25V12.44c-.547.156-1.017.234-1.424.234-.829 0-1.486-.281-1.987-.829-.501-.563-.751-1.314-.751-2.269 0-.892.25-1.627.735-2.19.501-.58 1.111-.861 1.862-.861.485 0 1.002.078 1.565.234V4.225a6.53 6.53 0 0 0-1.705-.203c-1.581-.016-2.911.5-3.96 1.533Zm9.343 7.12v-1.94h2.55V8.529h-2.55V6.572h2.957V4.303h-5.821V14.96H113v-2.269h-2.973v-.016Z"/></svg>
